X: 18794
T: If We Hadn't Any Women In The World
R: barndance
M: 4/4
K: Gmajor
B>c|:d>ed>B G>AB>G|E>AG>E D2 G>A|
[1 B>GB>d g>ed>B|A2 A>G A2:|
[2 B>dd>B A>GA>B|G2 G>F G2 (3Bcd:|
|:e2 e>f g2 f2|e>dd>B d2 (3Bcd|
e>dB>d g>ed>B|A2 A>G A2 B>c|
d>ed>B G>AB>G|E>AG>E D2 G>A|
B>dd>B A>GA>B|G2 G>F G2 (3Bcd:|

